Numix-GalliumOS/22/mimetypes/text-x-pascal.svg

<?xml version="1.0" encoding="UTF-8" standalone="no"?>
<svg
   xmlns:dc="http://purl.org/dc/elements/1.1/"
   xmlns:cc="http://creativecommons.org/ns#"
   xmlns:rdf="http://www.w3.org/1999/02/22-rdf-syntax-ns#"
   xmlns:svg="http://www.w3.org/2000/svg"
   xmlns="http://www.w3.org/2000/svg"
   xmlns:sodipodi="http://sodipodi.sourceforge.net/DTD/sodipodi-0.dtd"
   xmlns:inkscape="http://www.inkscape.org/namespaces/inkscape"
   width="22"
   height="22"
   viewBox="0 0 22 22"
   id="svg2"
   version="1.1"
   inkscape:version="0.91 r13725"
   sodipodi:docname="text-x-pascal.svg">
  <metadata
     id="metadata30">
    <rdf:RDF>
      <cc:Work
         rdf:about="">
        <dc:format>image/svg+xml</dc:format>
        <dc:type
           rdf:resource="http://purl.org/dc/dcmitype/StillImage" />
        <dc:title></dc:title>
      </cc:Work>
    </rdf:RDF>
  </metadata>
  <defs
     id="defs28" />
  <sodipodi:namedview
     pagecolor="#ffffff"
     bordercolor="#666666"
     borderopacity="1"
     objecttolerance="10"
     gridtolerance="10"
     guidetolerance="10"
     inkscape:pageopacity="0"
     inkscape:pageshadow="2"
     inkscape:window-width="1366"
     inkscape:window-height="718"
     id="namedview26"
     showgrid="false"
     inkscape:zoom="1"
     inkscape:cx="1.6372282"
     inkscape:cy="9.6297283"
     inkscape:window-x="0"
     inkscape:window-y="25"
     inkscape:window-maximized="1"
     inkscape:current-layer="svg2">
    <inkscape:grid
       type="xygrid"
       id="grid3336" />
  </sodipodi:namedview>
  <path
     style="fill:#f7ce6b;fill-opacity:1"
     d="m 4,-4e-7 c -0.472657,0 -1,0.527344 -1,1 L 3,21 c 0,0.445312 0.554687,1 1,1 l 14,0 c 0.445313,0 0.992367,-0.554753 1,-1 l 0,-15.0000004 -6,-6 z"
     id="path4-5"
     inkscape:connector-curvature="0"
     sodipodi:nodetypes="ssssssccs" />
  <path
     style="fill:#000000;fill-opacity:0.19599998"
     d="M 14,5.9999996 19,11 19,5.9999996 z"
     id="path6"
     inkscape:connector-curvature="0"
     sodipodi:nodetypes="cccc" />
  <path
     style="fill:#ffffff;fill-opacity:0.39200003"
     d="m 13,-4e-7 6,6 -5,0 c -0.445312,0 -1,-0.554688 -1,-1 z"
     id="path8"
     inkscape:connector-curvature="0"
     sodipodi:nodetypes="ccssc" />
  <path
     style="fill:#555555;fill-opacity:1;fill-rule:nonzero;stroke:none"
     d="M 9.155766,16.713971 C 8.622598,16.439393 8.2050095,15.707754 8.4844525,15.138284 c 0.235754,-0.48044 1.0385855,-0.611822 1.0803955,-1.222637 0.03956,-0.578057 0.495929,-1.05038 1.074364,-1.054858 0.60621,-0.0048 1.330712,-0.0773 1.779255,0.399349 0.344422,0.366002 0.246849,1.198686 0.781911,1.389453 0.460639,0.164233 0.867036,0.625421 0.755476,1.185718 -0.117886,0.592066 -0.611025,0.921648 -1.166884,1.004546 -1.208818,0.180279 -2.465151,0.287996 -3.630939,-0.123998 M 7.1473045,13.788582 C 6.5456895,13.368856 6.477425,12.548573 6.505066,11.856593 6.515321,11.600351 6.518071,10.723731 6.70684,10.967927 c 0.1915435,0.247788 0.1412295,0.447176 0.5279015,0.374531 0.586219,-0.110128 0.8075935,0.755005 1.2617325,1.094449 0.4079001,0.304884 0.3944036,1.091351 -0.1064405,1.351078 -0.3864905,0.200428 -0.866651,0.227902 -1.239922,-0.0026 m 6.5373275,-0.03529 c -0.542262,-0.221145 -0.538754,-1.025224 -0.07252,-1.371393 0.434018,-0.322254 0.598614,-1.082405 1.295561,-1.011104 0.207961,0.02128 0.169501,-1.005934 0.340207,-0.491956 0.176449,0.531273 0.203578,1.109009 0.245593,1.665416 0.04582,0.606801 -0.334306,1.300147 -0.974984,1.386388 -0.288013,0.03876 -0.595068,-0.0056 -0.834847,-0.179693 M 9.222797,11.365686 C 8.5808055,11.049276 8.450601,10.090313 8.8590276,9.5374175 9.196578,9.0804705 9.086114,8.2311532 9.558233,8.0124527 9.83193,7.8856682 9.358692,8.7688415 9.884326,8.8156295 c 0.744406,0.06625 0.339886,0.921357 0.590066,1.3854175 0.282525,0.52406 0.177782,1.240136 -0.477762,1.310495 -0.262775,0.0282 -0.54865,0.0067 -0.773926,-0.145482 m 2.217304,-0.05734 C 11.039361,11.019628 11.210116,10.47103 11.314667,10.072411 11.422516,9.6612065 11.07798,8.7581315 11.66104,8.7911605 c 0.686978,0.03892 0.08828,-0.8753533 0.348348,-0.7824278 0.500327,0.1787785 0.500087,1.0477898 0.877697,1.5047638 0.376706,0.455878 0.429881,1.2821265 -0.06049,1.7180055 -0.387505,0.344445 -0.963525,0.320997 -1.388491,0.07709"
     id="path53"
     inkscape:connector-curvature="0"
     sodipodi:nodetypes="csssssssccsssssccsssssccsssssccsssssc" />
</svg>

<svg xmlns="http://www.w3.org/2000/svg" viewBox="0 0 22 22">
 <path d="m 4 0 c -0.473 0 -1 0.527 -1 1 l 0 20 c 0 0.445 0.555 1 1 1 l 14 0 c 0.445 0 0.992 -0.555 1 -1 l 0 -15 -6 -6 z" style="fill:#f7ce6b;fill-opacity:1"/>
 <path d="m 14 6 5 5 0 -5 z" style="fill:#000;fill-opacity:0.196"/>
 <path d="m 13 0 6 6 -5 0 c -0.445 0 -1 -0.555 -1 -1 z" style="fill:#fff;fill-opacity:0.392"/>
 <path d="m 9.156 16.714 c -0.533 -0.275 -0.951 -1.01 -0.671 -1.576 c 0.236 -0.48 1.039 -0.612 1.08 -1.223 0.04 -0.578 0.496 -1.05 1.074 -1.055 0.606 -0.005 1.331 -0.077 1.779 0.399 0.344 0.366 0.247 1.199 0.782 1.389 0.461 0.164 0.867 0.625 0.755 1.186 -0.118 0.592 -0.611 0.922 -1.167 1 -1.209 0.18 -2.465 0.288 -3.631 -0.124 m -2.01 -2.927 c -0.602 -0.42 -0.67 -1.24 -0.642 -1.932 0.01 -0.256 0.013 -1.133 0.202 -0.889 c 0.192 0.248 0.141 0.447 0.528 0.375 0.586 -0.11 0.808 0.755 1.262 1.094 0.408 0.305 0.394 1.091 -0.106 1.351 -0.386 0.2 -0.867 0.228 -1.24 -0.003 m 6.537 -0.035 c -0.542 -0.221 -0.539 -1.025 -0.073 -1.371 0.434 -0.322 0.599 -1.082 1.296 -1.011 0.208 0.021 0.17 -1.01 0.34 -0.492 0.176 0.531 0.204 1.109 0.246 1.665 0.046 0.607 -0.334 1.3 -0.975 1.386 -0.288 0.039 -0.595 -0.006 -0.835 -0.18 m -4.464 -2.382 c -0.642 -0.316 -0.772 -1.275 -0.364 -1.828 0.338 -0.457 0.227 -1.306 0.699 -1.525 0.274 -0.127 -0.2 0.756 0.326 0.803 c 0.744 0.066 0.34 0.921 0.59 1.385 0.283 0.524 0.178 1.24 -0.478 1.31 -0.263 0.028 -0.549 0.007 -0.774 -0.145 m 2.217 -0.057 c -0.401 -0.289 -0.23 -0.838 -0.125 -1.236 0.108 -0.411 -0.237 -1.314 0.346 -1.281 c 0.687 0.039 0.088 -0.875 0.348 -0.782 0.5 0.179 0.5 1.048 0.878 1.505 0.377 0.456 0.43 1.282 -0.06 1.718 -0.388 0.344 -0.964 0.321 -1.388 0.077" style="fill:#555;fill-opacity:1;stroke:none;fill-rule:nonzero"/>
</svg>
